X: 0
T: The Road To Rio
C: Sean Ryan
M: 4/4
L: 1/8
K:Gmaj
|:"G"DEGA BABd|"Em"eg~g2 agef|"C/G"gede "G"gedB|"D/F#"AcBA "C/G"GEE2|
"G"DEGA "B7"BABd|"Em"egg2 agef|"C/G"gede "G"gedB|1"D/F#"cABA "G"G2GE:|2"D/F#"cABA "G"G2 ||
|:Bc|"G"dg~g2 bgg2|"G/F#"bgag edBd|"Em"eBB2 GABd|"Em"e2dB "C"AGEG|
"G"DEGA "G(B7)" BABd|"Em"egg2 agef|"C/G"gede "G"gedB|"D/F#"cABA "G"G2:|